X:2851
T:Charleston Reel
C:Jimmy Keane
R:reel
Z:id:hn-reel-276
M:C|
K:A
~c3B cBAB|cABA FAEA|EAAB cAce|decd BcdB|
~c3B cBAB|cABA FAEA|EAAB ceaf|1 ecBc A2AB:|2 ecBc A2fa||
|:bafa efcf|efce fcef|aeea fece|fcec BcdB|
~c3B cBAB|cABA FAEA|EAAB ceaf|1 ecBd cAfa:|2 ecBd cAAB||


